packages/react-icons/icons/lock.svg

<svg xmlns="http://www.w3.org/2000/svg" width="24" height="24"><path fill-rule="evenodd" d="M18 8.5h-1v-2c0-2.76-2.24-5-5-5s-5 2.24-5 5v2H6c-1.1 0-2 .9-2 2v10c0 1.1.9 2 2 2h12c1.1 0 2-.9 2-2v-10c0-1.1-.9-2-2-2Zm-6 9c-1.1 0-2-.9-2-2s.9-2 2-2 2 .9 2 2-.9 2-2 2Zm-3-11v2h6v-2c0-1.66-1.34-3-3-3s-3 1.34-3 3Z" clip-rule="evenodd"/></svg>

<svg width="24" height="24" viewBox="0 0 24 24" xmlns="http://www.w3.org/2000/svg">
<path fill-rule="evenodd" clip-rule="evenodd" d="M18 8.5H17V6.5C17 3.74 14.76 1.5 12 1.5C9.24 1.5 7 3.74 7 6.5V8.5H6C4.9 8.5 4 9.4 4 10.5V20.5C4 21.6 4.9 22.5 6 22.5H18C19.1 22.5 20 21.6 20 20.5V10.5C20 9.4 19.1 8.5 18 8.5ZM12 17.5C10.9 17.5 10 16.6 10 15.5C10 14.4 10.9 13.5 12 13.5C13.1 13.5 14 14.4 14 15.5C14 16.6 13.1 17.5 12 17.5ZM9 6.5V8.5H15V6.5C15 4.84 13.66 3.5 12 3.5C10.34 3.5 9 4.84 9 6.5Z" />
</svg>
